public/images/icones/tendencias.svg

<?xml version="1.0" encoding="utf-8"?>
<!-- Generator: Adobe Illustrator 25.2.3, SVG Export Plug-In . SVG Version: 6.00 Build 0)  -->
<svg version="1.1" id="Layer_1" xmlns="http://www.w3.org/2000/svg" xmlns:xlink="http://www.w3.org/1999/xlink" x="0px" y="0px"
	 viewBox="0 0 1000 969.95" style="enable-background:new 0 0 1000 969.95;" xml:space="preserve">
<style type="text/css">
	.st0{fill:#726350;}
	.st1{clip-path:url(#SVGID_2_);}
	.st2{clip-path:url(#SVGID_2_);fill:#472D23;}
	.st3{clip-path:url(#SVGID_4_);fill:#949494;}
	.st4{fill:none;stroke:#000000;stroke-width:25.5118;}
	.st5{fill:#808080;}
	.st6{fill:#FFFFFF;}
	.st7{clip-path:url(#SVGID_6_);fill:#808080;}
</style>
<g>
	<path d="M422.78,80.22l149.08,86.07l-149.08,86.07V80.22z M412.08,61.67v209.23l181.2-104.62L412.08,61.67z"/>
	<path d="M422.79,270.91v172.14l149.08-86.07L422.79,270.91z M412.07,461.59V252.36l181.21,104.62L412.07,461.59z"/>
	<path d="M587.93,366.26v172.14l149.08-86.07L587.93,366.26z M577.22,556.94V347.71l181.21,104.62L577.22,556.94z"/>
	<path d="M422.79,461.6v172.14l149.08-86.07L422.79,461.6z M412.07,652.28V443.05l181.21,104.62L412.07,652.28z"/>
	<path d="M428.13,452.32l149.08,86.07V366.25L428.13,452.32z M587.92,556.94L406.71,452.32l181.21-104.62V556.94z"/>
	<path d="M257.65,366.25v172.14l149.06-86.07L257.65,366.25z M246.93,556.94V347.71l181.21,104.62L246.93,556.94z"/>
	<path d="M263,166.29l149.08-86.07v172.14L263,166.29z M422.78,61.67l-181.2,104.62l181.2,104.62V61.67z"/>
	<path d="M263.01,356.98l149.06,86.07V270.91L263.01,356.98z M422.78,461.59l-181.2-104.62l181.2-104.62V461.59z"/>
	<path d="M593.28,166.29l149.08-86.07v172.14L593.28,166.29z M753.07,61.67L571.86,166.29l181.21,104.62V61.67z"/>
	<path d="M263.01,547.67l149.06,86.07V461.6L263.01,547.67z M422.78,652.28l-181.2-104.62l181.2-104.62V652.28z"/>
	<path d="M92.51,270.91l149.08,86.07L92.51,443.05V270.91z M81.79,461.6L263,356.98L81.79,252.37V461.6z"/>
	<path d="M753.07,270.91l149.08,86.07l-149.08,86.07V270.91z M742.35,461.6l181.21-104.62L742.35,252.37V461.6z"/>
	<path d="M587.93,175.57V347.7l149.08-86.07L587.93,175.57z M577.22,366.25V157.02l181.21,104.62L577.22,366.25z"/>
	<path d="M92.51,461.61l149.08,86.05L92.51,633.73V461.61z M81.79,652.29L263,547.66L81.79,443.06V652.29z"/>
	<path d="M97.85,261.64l149.08-86.09v172.15L97.85,261.64z M76.44,261.64l181.2,104.62V157.02L76.44,261.64z"/>
	<path d="M97.85,452.33l149.08-86.09V538.4L97.85,452.33z M76.44,452.33l181.2,104.62V347.69L76.44,452.33z"/>
	<path d="M97.85,833.71l149.08-86.09v172.15L97.85,833.71z M76.44,833.71l181.2,104.62V729.09L76.44,833.71z"/>
</g>
</svg>

<svg id="Layer_1" data-name="Layer 1" xmlns="http://www.w3.org/2000/svg" viewBox="0 0 1000 969.95"><path d="M422.78,80.22l149.07,86.07L422.78,252.36Zm-10.7-18.55V270.91L593.27,166.29Z"/><path d="M422.79,270.91V443.05L571.87,357ZM412.07,461.59V252.36L593.28,357Z"/><path d="M587.93,366.26V538.39L737,452.33ZM577.22,556.94V347.71L758.43,452.33Z"/><path d="M422.79,461.6V633.74l149.08-86.07ZM412.07,652.28V443.05L593.28,547.67Z"/><path d="M428.13,452.32l149.08,86.07V366.25ZM587.92,556.94,406.71,452.32,587.92,347.71Z"/><path d="M593.28,166.29,742.35,80.22V252.36ZM753.07,61.67,571.86,166.29,753.07,270.91Z"/><path d="M753.07,270.91,902.15,357,753.07,443.05ZM742.35,461.6,923.56,357,742.35,252.37Z"/><path d="M587.93,175.57V347.7L737,261.64ZM577.22,366.25V157L758.43,261.64Z"/><path d="M587.92,729.08V556.93L737,643Zm-10.7-190.69V747.63L758.42,643Z"/></svg>
